prod/images/flags-1x1/cf.svg

<svg viewBox="0 0 512 512" xmlns="http://www.w3.org/2000/svg" xmlns:xlink="http://www.w3.org/1999/xlink"><clipPath id="a"><path d="m0 0h512v512h-512z"/></clipPath><g clip-path="url(#a)" fill-rule="evenodd"><path d="m-52-.5h768v127h-768z" fill="#00f"/><path d="m-52 383.5h768v128.5h-768z" fill="#ff0"/><path d="m-52 255h768v128.5h-768z" fill="#009a00"/><path d="m-52 126.5h768v128.5h-768z" fill="#fff"/><path d="m268 0h128v512h-128z" fill="#f00"/><path d="m109.5 112.3-33.6-23.2-33.4 23.4 11.6-39.2-32.5-24.6 40.7-1 13.4-38.9 13.5 38.6 40.8.8-32.4 24.8" fill="#ff0"/></g></svg>

<svg viewBox="0 0 512 512" xmlns="http://www.w3.org/2000/svg"><clipPath id="a"><path d="M0 0h512v512H0z"/></clipPath><g clip-path="url(#a)" fill-rule="evenodd"><path d="M-52-.5h768v127H-52z" fill="#00f"/><path d="M-52 383.5h768V512H-52z" fill="#ff0"/><path d="M-52 255h768v128.5H-52z" fill="#009a00"/><path d="M-52 126.5h768V255H-52z" fill="#fff"/><path d="M268 0h128v512H268z" fill="red"/><path d="M109.5 112.3L75.9 89.1l-33.4 23.4 11.6-39.2-32.5-24.6 40.7-1L75.7 8.8l13.5 38.6 40.8.8L97.6 73" fill="#ff0"/></g></svg>
